X: 157
T: Country Abigail
P: Longways for as many as will
%R: jig
B: "The Dancing-Master: Containing Directions and Tunes for Dancing" printed by W. Pearson for John Walsh, London ca. 1709
S: 7: DMDfD http://digital.nls.uk/special-collections-of-printed-music/pageturner.cfm?id=89751228 p.119
Z: 2013 John Chambers <jc:trillian.mit.edu>
M: 6/4
L: 1/4
K: G
% - - - - - - - - - - - - - - - - - - - - - - - - -
g |\
dgB A2G | BdB g2a | b>ab g>fe | a>ga f2(e//f//g/) |\
d2B A2G | B>cd g>ag | f2e e2d | d3- d2 |]
a |\
f>ed B>gf | g2a b2a | g>ag f>ed | e>fe B2c |\
d>ed c2B | A3- A2B | A2G F2E | FA2 D2c |\
B>cB A2G | G3- G2 |]
% - - - - - - - - - - - - - - - - - - - - - - - - -
%%begintext align
%% First man and 2. wo. cast off and go below the 2. cu. then cross over below the 3. cu. and lead up
%% again in the middle, and then cast off into the 2. cu. place, then the 2. man and 1. wo. being together
%% take hands and fall back, while the 1. man and 2. wo. cross over and turn their own, then the two we.
%% cross over, and the two men cross over, and all four clap hands, then take hands and go quite round
%% and cast off; The rest do the same Figure over.
%% [DMDfD]
%%endtext
%%sep 1 8 500

%%sep 1 1 500
%%sep 1 1 500
